app/public/dtpr-icons/mobility.svg

<svg width="36" height="36" viewBox="0 0 36 36" fill="none" xmlns="http://www.w3.org/2000/svg">
<path d="M31.8564 8.8453L19 1.42265C18.3812 1.06538 17.6188 1.06538 17 1.42265L4.14359 8.8453C3.52479 9.20257 3.14359 9.86282 3.14359 10.5774V25.4226C3.14359 26.1372 3.52479 26.7974 4.14359 27.1547L17 34.5774C17.6188 34.9346 18.3812 34.9346 19 34.5774L31.8564 27.1547C32.4752 26.7974 32.8564 26.1372 32.8564 25.4226V10.5774C32.8564 9.86282 32.4752 9.20256 31.8564 8.8453Z" fill="black" stroke="black" stroke-width="2"/>
<mask id="mask0" mask-type="alpha" maskUnits="userSpaceOnUse" x="9" y="9" width="18" height="18">
<path fill-rule="evenodd" clip-rule="evenodd" d="M9.0004 9H26.3814V26.9996H9.0004V9Z" fill="white"/>
</mask>
<g mask="url(#mask0)">
<path fill-rule="evenodd" clip-rule="evenodd" d="M25.3374 10.6626L22.9494 13.0506L24.3634 11.6356C23.5384 10.8096 22.5754 10.1616 21.5044 9.7076C20.3934 9.2386 19.2134 8.9996 18.0004 8.9996C16.7854 8.9996 15.6074 9.2386 14.4964 9.7076C13.4244 10.1616 12.4624 10.8096 11.6364 11.6356C10.8104 12.4616 10.1614 13.4246 9.7084 14.4956C9.2384 15.6066 9.0004 16.7856 9.0004 17.9996C9.0004 19.2146 9.2384 20.3926 9.7084 21.5036C10.1614 22.5756 10.8104 23.5376 11.6364 24.3636C12.4624 25.1896 13.4244 25.8386 14.4964 26.2916C15.6074 26.7616 16.7854 26.9996 18.0004 26.9996C19.2134 26.9996 20.3934 26.7616 21.5044 26.2916C22.5754 25.8386 23.5384 25.1896 24.3634 24.3636C24.8764 23.8516 25.3194 23.2876 25.6914 22.6776C26.0044 22.1626 25.7924 21.4906 25.2414 21.2456L23.3934 20.4246C22.9484 20.2266 22.4274 20.3796 22.1554 20.7836C21.9754 21.0506 21.7684 21.3026 21.5354 21.5356C20.5914 22.4796 19.3354 22.9996 18.0004 22.9996C16.6644 22.9996 15.4084 22.4796 14.4644 21.5356C13.5204 20.5906 13.0004 19.3356 13.0004 17.9996C13.0004 16.6646 13.5204 15.4086 14.4644 14.4646C15.4084 13.5196 16.6644 12.9996 18.0004 12.9996C19.3354 12.9996 20.5914 13.5196 21.5354 14.4646L20.5624 15.4386C20.1764 15.8236 20.4504 16.4736 20.9894 16.4646L25.7744 16.4736C26.1164 16.4736 26.3814 16.2086 26.3814 15.8656V11.0906C26.3734 10.5516 25.7224 10.2776 25.3374 10.6626Z" fill="white"/>
</g>
</svg>

<svg xmlns="http://www.w3.org/2000/svg" width="36" height="36" fill="none"><path fill="#000" stroke="#000" stroke-width="2" d="M31.856 8.845 19 1.423a2 2 0 0 0-2 0L4.144 8.845a2 2 0 0 0-1 1.732v14.846a2 2 0 0 0 1 1.732L17 34.577a2 2 0 0 0 2 0l12.856-7.422a2 2 0 0 0 1-1.732V10.577a2 2 0 0 0-1-1.732Z"/><mask id="a" width="18" height="18" x="9" y="9" mask-type="alpha" maskUnits="userSpaceOnUse"><path fill="#fff" fill-rule="evenodd" d="M9 9h17.381v18H9.001z" clip-rule="evenodd"/></mask><g mask="url(#a)"><path fill="#fff" fill-rule="evenodd" d="M25.337 10.663 22.95 13.05l1.414-1.415A8.97 8.97 0 0 0 18 9a8.976 8.976 0 0 0-6.364 2.636A8.97 8.97 0 0 0 9 18c0 1.215.238 2.393.708 3.504a9 9 0 0 0 1.928 2.86 9 9 0 0 0 2.86 1.928A8.9 8.9 0 0 0 18 27a8.95 8.95 0 0 0 3.504-.708 9 9 0 0 0 2.86-1.928 9 9 0 0 0 1.327-1.686 1 1 0 0 0-.45-1.432l-1.848-.821a1 1 0 0 0-1.238.359q-.27.401-.62.752A4.97 4.97 0 0 1 18 23a4.97 4.97 0 0 1-3.536-1.464A4.97 4.97 0 0 1 13 18c0-1.335.52-2.591 1.464-3.535A4.97 4.97 0 0 1 18 13c1.335 0 2.591.52 3.535 1.465l-.973.974a.598.598 0 0 0 .427 1.026l4.785.009a.6.6 0 0 0 .607-.608V11.09c-.008-.54-.659-.813-1.044-.428" clip-rule="evenodd"/></g></svg>
